!!! OTL: Literature47
!!! Chapter: 5
!!! Section: I
!!! Page: 355
!!! Mode: 
!!! Encoder: DJB
**kern
*staff1
*I"Piano
=1-
*clefF4
*k[b-]
*d:
*M4/4
2r
4D\
4AA/
=2
4..D\
16E\
8.F\L
16E\Jk
8.F\L
16D\Jk
=3
4.A\
8F\
4G\
4A\
=4
8B-\L
8A\
8G\
8F\J
4E\
4A\
=5
8G\L
8F\
8E\
8F\J
4D\
4AA/
=6
4..D\
16E\
8.F\L
16E\Jk
8.F\L
16D\Jk
=7
4.A\
8F\
4G\
4A\
=8
!!linebreak:original
8c\L
8B-\
8A\
8G\J
4F\
4E\
=9
2D\
2r
==
*-
